dist/svgs/unicons/line/medkit.svg

<svg xmlns="http://www.w3.org/2000/svg" data-name="Layer 1" viewBox="0 0 24 24"><path d="M10 17h1v1a1 1 0 002 0v-1h1a1 1 0 000-2h-1v-1a1 1 0 00-2 0v1h-1a1 1 0 000 2zm9-11h-2V5a3 3 0 00-3-3h-4a3 3 0 00-3 3v1H5a3 3 0 00-3 3v10a3 3 0 003 3h14a3 3 0 003-3V9a3 3 0 00-3-3zM9 5a1 1 0 011-1h4a1 1 0 011 1v1H9zm11 14a1 1 0 01-1 1H5a1 1 0 01-1-1v-7h16zm0-9H4V9a1 1 0 011-1h14a1 1 0 011 1z"/></svg>

<svg xmlns="http://www.w3.org/2000/svg" data-name="Layer 1" viewBox="0 0 24 24"><path d="M10,17h1v1a1,1,0,0,0,2,0V17h1a1,1,0,0,0,0-2H13V14a1,1,0,0,0-2,0v1H10a1,1,0,0,0,0,2ZM19,6H17V5a3,3,0,0,0-3-3H10A3,3,0,0,0,7,5V6H5A3,3,0,0,0,2,9V19a3,3,0,0,0,3,3H19a3,3,0,0,0,3-3V9A3,3,0,0,0,19,6ZM9,5a1,1,0,0,1,1-1h4a1,1,0,0,1,1,1V6H9ZM20,19a1,1,0,0,1-1,1H5a1,1,0,0,1-1-1V12H20Zm0-9H4V9A1,1,0,0,1,5,8H19a1,1,0,0,1,1,1Z"/></svg>
